X: 9127
T: Daddy Shannon's
R: jig
M: 6/8
K: Dmajor
|:B,|"D"A,2B, DAG|FAd d2B|BAA AGF|"Em"GEE E2A|
"A"A,CC CEE|EGG "A/G"c2B|BAA AEF|GF^E "D/F#"FAG|
"D"FGA Ade|fge fag|"D/F#"fdA "G"gdA|"D/A"afd fed|
"G"Bdd dcB|"D/F#"AdB AFD|"Em"B,GE "A"A,FE|CDE "D"D2:|
C|:"Bm"B,3 DB,D|EDE F2E|"Bm/A#"FBc dcB|cB^A B2f|
"Bm/A"dBF BFD|B,DE "G#dim"=F3|1 E2=F EDA,|"Bm/F#"B,3 "/A"DCA,:|2 =FEE "F#m"E^FA|"Bm"B3 B2c||
"D"d3 dAA|AFF F2A|"G"GgG fGe|dfG eGg|
"D"faa a2f|edd dfa|"G"bgB "Em"geA|"A"Afe "D"dag|
"D"fad dfA|AdF FAF|"G"GgG fGe|dfG eGg|
"D"faa a2a|edd dfa|"G"bgB "Em"geA|"A"Afe "D"dcB||
"D"AGF "A"E3-|EFD E2A,-|A,GG GAA|ABB BAB|
"A"AGF E3-|EFD E2A,-|A,GF G2F|EDC "D"D2B|
"D"AGF "A"E3-|EFD E2A,-|A,FF GGG|A,AA BAB|
"A"AGF E3-|EFD E2A,-|A,GF G2F|EDC "D"D2||

